X:352
T:Rosin the Bow
B:Joyce, P. W.; "Old Irish Folk Music and Songs"
N:See #347 for history
R:single jig
A:Limerick
O:Irish
L:1/8
M:6/8
Z:Allan Garvin
K:A
E|\
ABA cBA|f3 a2 f|ecA ABc|(F3 F2) E|
ABA cBA|f3 a2 f|ecA BAB|(A3 A2)||c/d/|
ece efg|a2 f a2 f|ecA ABc|(F3 F2) E|
ABA cBA|f3 a2 f|ecA BAB|(A3 A2)||
